X:1
T:Title
%%score 1 { 2 | 3 }
L:1/8
Q:1/4=85
M:6/8
K:F
V:1 treble nm="Drawbar Organ, Soprano"
V:2 treble nm="Drawbar Organ, Cling to the Bible, My Boy"
V:3 bass 
V:1
 F/[FG]<[FA][FA]/ [FA][Ac][FA] | F[DF][DF] [^CF] [=CF]2 | [CF]/[CF]<[EG][EG]/ [EG][EG][EG] | %3
w: By~Daniel~Brink~Towner * * * * * *|||
 [FA][GB][GB] [GB] [FA]2 | [FA]/[GB]<[Ac][Ac]/ [Ac][FA][FG] | [CF][CF][FG] [FA] [FB]2 | %6
w: |||
 [Fd][Fc]>[Fc] [Fc][Ec][EB] | [EG] F2- F2- F/ z/ | [FA][Ac]>[Ac] [Ac][Ac][FA] | %9
w: |||
 [Bd] [Bd]2- [Bd]2- [Bd]/ z/ | [Bd][Ac]>[Ac] [Ac][Bd][Ac] | [FA] [EG]2- [EG]2- [EG]/ z/ | %12
w: |||
 [EB][FA][FA] [FA][EB][EB] | [EB][_Ec][Ec] [Ec] [Dd]2 | [Be][Af][Fc] [FA][Ec][EB] | [EG] F2- F3- | %16
w: ||||
 F3 z3 |] %17
w: |
V:2
 A,/B,<CC/ CCC | C[K:bass]B,B, B, A,2 | A,/A,<[K:treble]CC/ CCC | CCC C C2 | F,/F,<F,F,/ F,CB, | %5
 A,A,B,[K:treble] C/_E/ D2 | B,A,>[K:bass]A, A,G,C | B, A,2- A,2- A,/ z/ | CF>F FFC | %9
 F F2- F2- F/ z/ | FF>F FFF | C C2- C2- C/ z/ | CCC CCC | CFF F F2 | CCA, CC[K:bass]C | %15
 B, A,2- A,3- | A,3 z3 |] %17
V:3
 F,/F,<F,F,/ F,F,F, | A,,B,,B,, B,, [F,,F,]2 | F,/F,<C,C,/ C,C,C, | C,C,C, C, F,2 | z3 z F,F, | %5
 F,F,F, F, B,,2 | B,,C,>C, C,C,C, | C, [F,,F,]2- [F,,F,]2- [F,,F,]/ z/ | F,F,>F, F,F,F, | %9
 F,B,,D, F, B,2 | B,F,>F, F,F,F, | F,C,E, G, C,2 | C,F,F, F,G,G, | G,A,A, A, B,2 | G,F,F, F,C,C, | %15
 C, [F,,F,]2- [F,,F,]3- | [F,,F,]3 z3 |] %17

